packages/eui/src/components/icon/svgs/trash.svg

<svg width="16" height="16" viewBox="0 0 16 16" fill="none" xmlns="http://www.w3.org/2000/svg">
<path d="M7 6H6V12H7V6Z" fill="#1D2A3E"/>
<path d="M9.99707 6H8.99707V12H9.99707V6Z" fill="#1D2A3E"/>
<path fill-rule="evenodd" clip-rule="evenodd" d="M5 2V3H2V4L3 4V14C3 14.5523 3.44772 15 4 15H12C12.5523 15 13 14.5523 13 14V4H14V3H11V2C11 1.44772 10.5523 1 10 1H6C5.44772 1 5 1.44772 5 2ZM10 2H6V3H10V2ZM4 14V4H12V14H4Z" fill="#1D2A3E"/>
</svg>

<svg xmlns="http://www.w3.org/2000/svg" width="16" height="16" viewBox="0 0 16 16">
  <path d="M7 6H6v6h1V6Zm2.997 0h-1v6h1V6Z"/>
  <path fill-rule="evenodd" d="M5 2v1H2v1h1v10a1 1 0 0 0 1 1h8a1 1 0 0 0 1-1V4h1V3h-3V2a1 1 0 0 0-1-1H6a1 1 0 0 0-1 1Zm5 0H6v1h4V2ZM4 14V4h8v10H4Z" clip-rule="evenodd"/>
</svg>
